X: 10399
T: Donald Ian Rankine
R: jig
M: 6/8
K: Fmajor
Acc FAA|CFF A,CC|A,CC FAA|FEE E3|CEE EGG|
GBB Bcc|1 cee ecc|BAA A3:|2 cee ede|gff f3||
aff cff|aff dcc|aff cff|fee e3|
gee cee|gee dcc|gee cee|dcc c3|
aff cff|aff dcc|aff cff|fdd d3|
dBB FBB|CFF Acc|cee ede|gff f3||

